dist/img/mails.svg

<svg width="22" height="22" viewBox="0 0 22 22" fill="none" xmlns="http://www.w3.org/2000/svg">
<path d="M2.3249 15.875C1.70824 15.825 1.17074 15.5875 0.712402 15.1625C0.254069 14.7375 0.0249023 14.2167 0.0249023 13.6V5.85C0.0249023 5.41667 0.108236 5.0375 0.274902 4.7125C0.441569 4.3875 0.758236 4.1 1.2249 3.85L7.9249 0.450001C8.0749 0.366667 8.2374 0.304167 8.4124 0.262501C8.5874 0.220834 8.7749 0.200001 8.9749 0.200001C9.15824 0.200001 9.34157 0.225001 9.5249 0.275001C9.70824 0.325001 9.88324 0.391667 10.0499 0.475001L16.3999 3.8C16.7999 4.05 17.1207 4.37917 17.3624 4.7875C17.6041 5.19583 17.7332 5.6 17.7499 6H15.7249L8.9999 2.5L2.3249 5.875V15.875ZM5.3749 21.1C4.75824 21.1 4.2249 20.875 3.7749 20.425C3.3249 19.975 3.0999 19.4417 3.0999 18.825V9.125C3.0999 8.50833 3.3249 7.97083 3.7749 7.5125C4.2249 7.05417 4.75824 6.825 5.3749 6.825H19.6999C20.2999 6.825 20.8291 7.05417 21.2874 7.5125C21.7457 7.97083 21.9749 8.50833 21.9749 9.125V18.825C21.9749 19.4417 21.7457 19.975 21.2874 20.425C20.8291 20.875 20.2999 21.1 19.6999 21.1H5.3749ZM12.5499 14.05C12.6499 14.05 12.7457 14.0333 12.8374 14C12.9291 13.9667 13.0082 13.9333 13.0749 13.9L19.2249 10.775C19.3582 10.725 19.4707 10.6417 19.5624 10.525C19.6541 10.4083 19.6999 10.2667 19.6999 10.1C19.6999 9.81667 19.5791 9.59583 19.3374 9.4375C19.0957 9.27917 18.8416 9.25833 18.5749 9.375L12.5499 12.425L6.4999 9.375C6.2499 9.29167 5.9999 9.31667 5.7499 9.45C5.4999 9.58333 5.3749 9.8 5.3749 10.1C5.3749 10.25 5.4124 10.3792 5.4874 10.4875C5.5624 10.5958 5.66657 10.6917 5.7999 10.775L12.0249 13.9C12.0416 13.9167 12.2166 13.9667 12.5499 14.05Z" fill="#00E0FF"/>
</svg>

<svg width="22" height="22" fill="none" xmlns="http://www.w3.org/2000/svg"><path d="M2.325 15.875a2.622 2.622 0 0 1-1.613-.713A2.049 2.049 0 0 1 .025 13.6V5.85c0-.433.083-.813.25-1.137.167-.325.483-.613.95-.863l6.7-3.4c.15-.083.312-.146.487-.187C8.587.22 8.775.2 8.975.2c.183 0 .367.025.55.075.183.05.358.117.525.2L16.4 3.8c.4.25.72.58.962.987.242.409.371.813.388 1.213h-2.025L9 2.5 2.325 5.875v10Zm3.05 5.225c-.617 0-1.15-.225-1.6-.675-.45-.45-.675-.983-.675-1.6v-9.7c0-.617.225-1.154.675-1.612.45-.459.983-.688 1.6-.688H19.7c.6 0 1.13.23 1.587.688.459.458.688.995.688 1.612v9.7c0 .617-.23 1.15-.688 1.6-.458.45-.987.675-1.587.675H5.375Zm7.175-7.05c.1 0 .196-.017.287-.05.092-.033.171-.067.238-.1l6.15-3.125a.765.765 0 0 0 .337-.25.667.667 0 0 0 .138-.425.75.75 0 0 0-.363-.662.758.758 0 0 0-.762-.063l-6.025 3.05-6.05-3.05a.918.918 0 0 0-.75.075c-.25.133-.375.35-.375.65 0 .15.037.28.112.388.075.108.18.204.313.287l6.225 3.125c.017.017.192.067.525.15Z" fill="#00E0FF"/></svg>
